!!!SOCIAL_FUNCTION:	songs of the drum-presentation ceremony
!!!PDT:	1913
!!!OTL: No_66_I_Am_Small.krn
!!!REG: Great_Lakes
!!!LANG: Non-Tone
!!!LING_GROUP: Algonquin
**kern	**kern
*staff2	*staff1
*clefF4	*clefF4
*k[b-e-a-d-]	*k[b-e-a-d-]
*M2/4	*M2/4
16r	16e-\
=1	=1
12GG^/	4e-\
12r	.
12GG/	.
12GG^/	4c\
12r	.
12GG/	.
=2||	=2||
*M3/4	*M3/4
2.r	4e-\
.	[4e-\
.	8.e-\L]
.	16e-\Jk
=3||	=3||
*M2/4	*M2/4
2r	8.c\L
.	16c\Jk
.	8.A-\L
.	16c\Jk
=4	=4
2r	4A-\
.	[4A-\
=5	=5
2r	4A-\]
.	8.A-\L
.	16e-\Jk
=6	=6
2r	8.e-\L
.	16e-\Jk
.	8.c\L
.	16e-\Jk
=7||	=7||
*M3/4	*M3/4
2.r	4e-\
.	[4e-\
.	8.e-\L]
.	16e-\Jk
=8||	=8||
*M2/4	*M2/4
2r	8.c\L
.	16c\Jk
.	8.A-\L
.	16c\Jk
=9	=9
2r	4A-\
.	[4A-\
=10	=10
2r	4A-\_
.	8.A-\L]
.	16A-\Jk
=11	=11
2r	8F\L
.	8F\J
.	16A-\LK
.	[8.A-\J
=12	=12
2r	4A-\]
.	8.F\L
.	16F\Jk
=13	=13
2r	4E-\
.	[4E-\
=14	=14
2r	4E-\_
.	8.E-\L]
.	16A-\Jk
=15	=15
2r	8.A-\L
.	16A-\Jk
.	8.E-\L
.	16F\Jk
=16||	=16||
*M3/4	*M3/4
2.r	4E-\
.	2E-\
=17||	=17||
*M2/4	*M2/4
2r	12E-/L
.	[12C/
.	12C/J]
.	12C/L
.	[12BB-/
.	12BB-/J]
=18	=18
2r	8.AA-/L
.	16AA-/Jk
.	[4AA-/
=19	=19
2r	2AA-/]
==	==
*-	*-
